X:429
T:Crowley's
R:reel
Z:id:hn-reel-429
M:C|
K:D
e|:f2df edBc|dBBA BAFA|1 ~B3d AFDE|FEED E2de:|2 ~B3d AFDF|EFGE FDFA||
|:d2dc dAFA|BABd cA~A2|BGAF GEFD|1 EFGE FDFA:|2 EFGE FDD||
P:variations
e|:f2ed edBc|dBBA BAFA|1 ~B3d AFDF|GEFD EDB,d:|2 BcdB AGFD|EGAG FDDA||
|:cddc dAFA|BGBd cA~A2|BGAF GEFD|1 EFGE FDFA:|2 EFGE FDD||
P:more variations
e|:~f3d ~e3c|dBcA BAFA|1 BcdB AFDF|GEED EFGB:|2 ~B3d AFDF|~E3G FDD2||
|:Addc dAFA|~B3d cA~A2|B2AB GBFG|1 ~E3G FDDF:|2 ~E3G FDd||

